img/youtube.svg

<svg width="21" height="21" viewBox="0 0 21 21" fill="none" xmlns="http://www.w3.org/2000/svg">
<path d="M12.0897 10.246L9.75013 9.1543C9.54596 9.05951 9.37825 9.16575 9.37825 9.3918V11.448C9.37825 11.6741 9.54596 11.7803 9.75013 11.6855L12.0887 10.5939C12.2939 10.498 12.2939 10.3418 12.0897 10.246ZM10.4199 0.419922C4.89701 0.419922 0.419922 4.89701 0.419922 10.4199C0.419922 15.9428 4.89701 20.4199 10.4199 20.4199C15.9428 20.4199 20.4199 15.9428 20.4199 10.4199C20.4199 4.89701 15.9428 0.419922 10.4199 0.419922ZM10.4199 14.4824C5.30117 14.4824 5.21159 14.021 5.21159 10.4199C5.21159 6.81888 5.30117 6.35742 10.4199 6.35742C15.5387 6.35742 15.6283 6.81888 15.6283 10.4199C15.6283 14.021 15.5387 14.4824 10.4199 14.4824Z" fill="#BDBDBD"/>
</svg>

<svg width="21" height="21" fill="none" xmlns="http://www.w3.org/2000/svg"><path d="M12.09 10.246 9.75 9.154c-.204-.094-.372.012-.372.238v2.056c0 .226.168.332.372.237l2.339-1.091c.205-.096.205-.252 0-.348zM10.42.42c-5.523 0-10 4.477-10 10s4.477 10 10 10 10-4.477 10-10-4.477-10-10-10zm0 14.062c-5.119 0-5.208-.461-5.208-4.062 0-3.601.09-4.063 5.208-4.063 5.119 0 5.208.462 5.208 4.063 0 3.601-.09 4.062-5.208 4.062z" fill="#BDBDBD"/></svg>
